X:538
T:B538-  Young Jemmy (Was a Lad)
S:song by Aphra Behn, 1681
Q:1/4=120
L:1/4
M:C|
K:Dm
A|F(E/D/) (F/G/)A|d2f2|(e/f/) (e/d/) (c/d/) (c/A/)|G2AA|\
F(E/D/) (F/G/)A|d2(f3/2g/)|a(g/f/) (e/f/) (e/d/)|d2D||A|\
d3/2e/ (f/e/) (f/c/)|AccA|d3/2d/ (g/f/) (g/e/)|f2a2|\
A3/2G/ (A/B/)c|c3/2B/A^c|d(e/f/) (g/f/) (e/d/)|d3|]

